nocturnal/importCSS/Discolored/assets/5f284899e72a967e9f34.svg

<svg xmlns="http://www.w3.org/2000/svg" fill="none" height="100" viewBox="0 0 100 100" width="100"><path d="m69.57 13.05h-39.14c0 9.32-7.17 17.11-16.75 19v5.39c0 17.72 9.36 34.36 25.14 44.67l11.18 7.3 11.18-7.3c15.82-10.31 25.14-26.95 25.14-44.67v-5.39c-9.58-1.89-16.75-9.68-16.75-19z" fill="#060607"/><path d="m37 84.69c-16.46-10.9-26.3-28.59-26.3-47.34v-7.81l2.52-.5c8.19-1.64 14.13-8.46 14.13-16.22v-2.99999h45.3v2.99999c0 7.76 5.94 14.58 14.13 16.22l2.52.5v7.81c0 18.75-9.84 36.44-26.3 47.34l-13 8.58z" fill="#95fff3"/><path d="m69.45 12.82c0 9.38 7.13 17.21 16.65 19.11v5.42c0 17.83-9.3 34.57-25 44.93l-11.1 7.35-11.12-7.35c-15.68-10.36-25-27.1-25-44.93v-5.42c9.54-1.93 16.67-9.73 16.67-19.11zm6.4-5.91h-51.7v5.91c0 6.38-4.88 12-11.6 13.33l-5.05 1v10.2c0 19.7 10.34 38.29 27.66 49.75l11.12 7.35 3.72 2.46 3.72-2.46 11.12-7.35c17.32-11.46 27.66-30 27.66-49.75v-10.2l-5-1c-6.72-1.35-11.6-6.95-11.6-13.33v-5.91z" fill="#008ae6"/><path d="m50 12.82h-19.45c0 9.38-7.13 17.21-16.65 19.11v5.42c0 17.83 9.3 34.57 25 44.93l11.1 7.35z" fill="#69ecf3"/><path d="m63.8812 35.5142c-2.6362-1.1915-5.4184-2.0368-8.2758-2.5142-.3933.6882-.7465 1.3981-1.058 2.1262-3.029-.4501-6.109-.4501-9.138 0-.29-.6673-.7132-1.5054-1.0658-2.1262-2.853.479-5.6302 1.327-8.2602 2.522-4.6465 6.5292-6.7433 14.5058-5.9013 22.4495 3.057 2.2373 6.4792 3.9381 10.1176 5.0285.8175-1.0917 1.5411-2.2494 2.163-3.4609-1.1829-.4327-2.3239-.9703-3.4091-1.6064.2821-.2095.5643-.419.8386-.644 3.163 1.4718 6.6148 2.2349 10.1097 2.2349 3.4948 0 6.9467-.7631 10.1097-2.2349.2743.225.5486.4345.8386.644-1.0901.6341-2.2333 1.1741-3.4169 1.6141.6208 1.2097 1.3444 2.3649 2.163 3.4532 3.6421-1.0869 7.0675-2.7881 10.1254-5.0285.8341-7.9512-1.277-15.9318-5.9405-22.4573zm-20.5094 17.9333c-.9873-.1061-1.9003-.5696-2.5635-1.3014-.6633-.7319-1.0301-1.6806-1.0301-2.6639 0-.9834.3668-1.9321 1.0301-2.664.6632-.7318 1.5762-1.1953 2.5635-1.3014.9873.1061 1.9002.5696 2.5635 1.3014.6633.7319 1.0301 1.6806 1.0301 2.664 0 .9833-.3668 1.932-1.0301 2.6639-.6633.7318-1.5762 1.1953-2.5635 1.3014zm13.2759 0c-.8108.0864-1.6289-.0729-2.3463-.4568s-1.3002-.9744-1.6714-1.6933c-.3712-.719-.5133-1.5325-.4075-2.3331s.4545-1.5506 1-2.1508c.5455-.6001 1.2621-1.0222 2.0551-1.2105.793-.1882 1.625-.1337 2.3861.1564.761.29 1.4152.8019 1.8761 1.468s.7067 1.4551.7051 2.2625c.0448 1.0002-.3115 1.9775-.9911 2.7188-.6797.7412-1.6277 1.1865-2.6375 1.2388z" fill="#004e99"/></svg>

<svg xmlns="http://www.w3.org/2000/svg" width="100" height="100" viewBox="0 0 100 100" fill="none">
<path d="M69.57 13.05H30.43C30.43 22.37 23.26 30.16 13.68 32.05V37.44C13.68 55.16 23.04 71.8 38.82 82.11L50 89.41L61.18 82.11C77 71.8 86.32 55.16 86.32 37.44V32.05C76.74 30.16 69.57 22.37 69.57 13.05Z" fill="#060607"/>
<path d="M37 84.69C20.54 73.79 10.7 56.1 10.7 37.35V29.54L13.22 29.04C21.41 27.4 27.35 20.58 27.35 12.82V9.82001H72.65V12.82C72.65 20.58 78.59 27.4 86.78 29.04L89.3 29.54V37.35C89.3 56.1 79.46 73.79 63 84.69L50 93.27L37 84.69Z" fill="#8afeff"/>
<path d="M69.45 12.82C69.45 22.2 76.58 30.03 86.1 31.93V37.35C86.1 55.18 76.8 71.92 61.1 82.28L50 89.63L38.88 82.28C23.2 71.92 13.88 55.18 13.88 37.35V31.93C23.42 30 30.55 22.2 30.55 12.82H69.45ZM75.85 6.91H24.15V12.82C24.15 19.2 19.27 24.82 12.55 26.15L7.5 27.15V37.35C7.5 57.05 17.84 75.64 35.16 87.1L46.28 94.45L50 96.91L53.72 94.45L64.84 87.1C82.16 75.64 92.5 57.1 92.5 37.35V27.15L87.5 26.15C80.78 24.8 75.9 19.2 75.9 12.82V6.91H75.85Z" fill="#008ae6"/>
<path d="M50 12.82H30.55C30.55 22.2 23.42 30.03 13.9 31.93V37.35C13.9 55.18 23.2 71.92 38.9 82.28L50 89.63V12.82Z" fill="#69ecf3"/>
<path d="M63.8812 35.5142C61.245 34.3227 58.4628 33.4774 55.6054 33C55.2121 33.6882 54.8589 34.3981 54.5474 35.1262C51.5184 34.6761 48.4384 34.6761 45.4094 35.1262C45.1194 34.4589 44.6962 33.6208 44.3436 33C41.4906 33.479 38.7134 34.327 36.0834 35.522C31.4369 42.0512 29.3401 50.0278 30.1821 57.9715C33.2391 60.2088 36.6613 61.9096 40.2997 63C41.1172 61.9083 41.8408 60.7506 42.4627 59.5391C41.2798 59.1064 40.1388 58.5688 39.0536 57.9327C39.3357 57.7232 39.6179 57.5137 39.8922 57.2887C43.0552 58.7605 46.507 59.5236 50.0019 59.5236C53.4967 59.5236 56.9486 58.7605 60.1116 57.2887C60.3859 57.5137 60.6602 57.7232 60.9502 57.9327C59.8601 58.5668 58.7169 59.1068 57.5333 59.5468C58.1541 60.7565 58.8777 61.9117 59.6963 63C63.3384 61.9131 66.7638 60.2119 69.8217 57.9715C70.6558 50.0203 68.5447 42.0397 63.8812 35.5142ZM43.3718 53.4475C42.3845 53.3414 41.4715 52.8779 40.8083 52.1461C40.145 51.4142 39.7782 50.4655 39.7782 49.4822C39.7782 48.4988 40.145 47.5501 40.8083 46.8182C41.4715 46.0864 42.3845 45.6229 43.3718 45.5168C44.3591 45.6229 45.272 46.0864 45.9353 46.8182C46.5986 47.5501 46.9654 48.4988 46.9654 49.4822C46.9654 50.4655 46.5986 51.4142 45.9353 52.1461C45.272 52.8779 44.3591 53.3414 43.3718 53.4475ZM56.6477 53.4475C55.8369 53.5339 55.0188 53.3746 54.3014 52.9907C53.584 52.6068 53.0012 52.0163 52.63 51.2974C52.2588 50.5784 52.1167 49.7649 52.2225 48.9643C52.3283 48.1637 52.677 47.4137 53.2225 46.8135C53.768 46.2134 54.4846 45.7913 55.2776 45.603C56.0706 45.4148 56.9026 45.4693 57.6637 45.7594C58.4247 46.0494 59.0789 46.5613 59.5398 47.2274C60.0007 47.8935 60.2465 48.6825 60.2449 49.4899C60.2897 50.4901 59.9334 51.4674 59.2538 52.2087C58.5741 52.9499 57.6261 53.3952 56.6163 53.4475H56.6477Z" fill="#004e99"/>
</svg>
